svg/u1f3fa.svg

<svg viewBox="0 0 128 128" xmlns="http://www.w3.org/2000/svg">
  <g>
    <path d="M74.34,112.26c-1.71-1.39-18.97-1.39-20.68,0c-2.5,2.03-4.88,3.89-6.25,5.87 c-0.67,0.96-0.41,2.47,0.52,2.96c2.29,1.2,7.12,2.92,16.07,2.92s13.79-1.71,16.07-2.92c0.93-0.49,1.19-2,0.52-2.96 C79.22,116.15,76.84,114.29,74.34,112.26z" fill="#723F22"/>
    <path d="M88.54,39.55c-2.4-0.66-8.45-1.99-9.87-5.73c-1.59-4.2,1.87-24.52,1.87-24.52H47.46 c0,0,3.77,19.25,1.87,24.52c-1.36,3.76-7.47,5.07-9.87,5.73c-2.4,0.66-13.87,1.12-12.27,22.28c1.53,20.23,25.08,51.74,25.08,51.74 s1.26,2.93,11.74,2.93s11.74-2.93,11.74-2.93s23.55-31.51,25.08-51.74C102.41,40.66,90.94,40.21,88.54,39.55z" fill="#FF7E45"/>
    <path d="M55.64,117.23c0.29,0.14,0.6,0.29,0.8,0.54c0.23,0.28,0.3,0.66,0.35,1.03c0.07,0.5,0.11,1,0.12,1.5 c0.01,0.44-0.04,0.95-0.41,1.18c-0.16,0.1-0.35,0.12-0.53,0.13c-1.9,0.15-3.8-0.44-5.51-1.28c-0.51-0.25-1.06-0.59-1.14-1.15 c-0.06-0.42,0.18-0.83,0.42-1.18c0.4-0.58,0.83-1.13,1.3-1.66C52.3,114.88,54.24,116.57,55.64,117.23z" fill="#A15D38"/>
    <path d="M43.58,4c-2.36,0-2.48,2.27-1.53,3.74c1.85,2.88,4.31,4.81,5.68,5.71c1.36,0.9,4.48,1.33,16.26,1.33 s14.95-0.87,16.07-1.33c1.12-0.46,4.47-2.98,6.11-6.25c0.67-1.33,0.58-3.13-1.32-3.13C83.28,4.08,45.41,4,43.58,4z" fill="#723F22"/>
    <g>
      <path d="M97.63,74.95c-23.25,3.02-43.89,3.23-67.18,0.19l1.75,4.34c21.19,2.58,42.53,2.58,63.67-0.11 L97.63,74.95z" fill="#723F22"/>
      <path d="M29.67,72.92c-0.14-0.43-0.28-0.86-0.41-1.28C29.39,72.07,29.52,72.49,29.67,72.92z" fill="#723F22"/>
      <path d="M98.85,71.32c-0.15,0.48-0.3,0.96-0.46,1.44C98.55,72.28,98.7,71.8,98.85,71.32z" fill="#723F22"/>
      <path d="M100.94,59.32c0,0-3.1,0.36-5.99,0.62l-1.56,11.54c2.06-0.19,3.88-0.36,5.57-0.54 c0.97-3.18,1.63-6.27,1.85-9.12C100.99,59.43,100.94,59.32,100.94,59.32z" fill="#723F22"/>
    </g>
    <g>
      <path d="M100.38,51.4c0,0-0.01,0-0.01,0c0.12,0.6,0.23,1.22,0.32,1.89 C100.55,52.27,100.38,51.4,100.38,51.4z" fill="#723F22"/>
      <path d="M100.9,55.69c0,0-0.02-0.34-0.06-0.83C100.87,55.13,100.88,55.42,100.9,55.69 C100.9,55.69,100.9,55.69,100.9,55.69z" fill="#723F22"/>
      <path d="M43.11,58.03c6.96,0.67,10.42,0.85,17.35,0.95c0.06,4.04,0.09,6.06,0.15,10.11 c-1.68-0.02-2.52-0.04-4.2-0.1c-0.09-2.48-0.13-3.72-0.22-6.2c-3.34-0.12-5.01-0.21-8.36-0.46c0.34,4.54,0.51,6.81,0.84,11.35 c7.23,0.55,10.83,0.66,18.05,0.53c0.09-6.1,0.14-9.15,0.23-15.24c6.93-0.12,10.4-0.32,17.36-1.01c-0.39,4.06-0.59,6.09-0.97,10.14 c-1.69,0.17-2.53,0.25-4.22,0.38c0.19-2.48,0.28-3.72,0.47-6.21c-3.35,0.26-5.02,0.36-8.36,0.49c-0.16,4.53-0.24,6.8-0.4,11.33 c7.22-0.28,10.83-0.59,18.1-1.56c0.76-6.13,1.14-9.2,1.92-15.33c4.06-0.53,6.95-0.96,10.05-1.52c-0.02-0.28-0.12-1.6-0.21-2.4 c-0.07-0.62-0.32-1.89-0.32-1.89c-24.66,3.25-48.12,3.31-72.77,0.2c-0.25,1.29-0.42,2.73-0.5,4.32c3.47,0.62,5,0.82,9.5,1.39 c0.51,4.07,0.77,6.1,1.27,10.16c-1.69-0.22-2.54-0.33-4.24-0.59c-0.36-2.5-0.54-3.74-0.9-6.24c-2.76-0.41-3.29-0.48-5.65-0.9 c0.03,0.67,0.06,1.37,0.12,2.09c0.22,2.93,0.92,6.11,1.92,9.38c5.39,0.96,9.31,1.51,15.45,2.11 C43.99,67.21,43.7,64.15,43.11,58.03z" fill="#723F22"/>
    </g>
    <path d="M65.4,88.42c-12.71,0-24.7-1.68-30.25-2.59l-0.97-2.21c4.67,0.81,17.53,2.78,31.21,2.78 c13.48,0,24.43-1.92,28.51-2.74l-1.06,2.26C87.88,86.85,77.66,88.42,65.4,88.42z" fill="#723F22"/>
    <path d="M49.94,10.17c4.43,0.5,7.65-0.07,12.16-1.59c1.24-0.42,0.99-2.22-0.31-2.23l-6.56-0.07l-9.15-0.39 c-1.95-0.06-1.85,2.2-0.14,3.15C46.45,9.31,47.73,9.92,49.94,10.17z" fill="#A15D38"/>
    <path d="M81.17,36.71c-1.12-0.76-2.05-1.7-2.5-2.9c-0.6-1.6-0.48-5.52-0.09-9.77 c-10.78,1.73-18.23,1.74-28.98,0.03c0.36,4.03,0.42,7.82-0.27,9.74c-0.43,1.2-1.35,2.15-2.47,2.9 C58.09,39.55,69.94,39.55,81.17,36.71z" fill="#723F22"/>
    <g>
      <path d="M28.86,47.27c-0.13-0.92-1.13-7.93-1.25-9.92c-0.24-3.96-0.25-8,0.46-11.92 c0.56-3.1,1.62-6.51,4.13-8.6c1.9-1.58,4.34-1.96,6.76-1.45c3.01,0.63,5.61,2.55,7.77,4.66c0.91,0.89,2.98,3.11,3.81,7.26 c0.54,2.72,0.68,7.9-2.25,9.39c-0.48,0.25-1.15,0.36-1.51-0.05c-0.24-0.28,0.12-3.35-0.46-6.19 c-0.67-3.24-5.63-11.9-10.02-10.21c-1.92,0.74-2.77,2.92-3.04,4.77c-0.93,6.58,0.2,11.41,1.43,15.37 c0.2,0.63,0.82,1.52,0.6,2.13C33.94,46.36,28.93,47.71,28.86,47.27z" fill="#723F22"/>
      <path d="M99.14,47.27c0.13-0.92,1.13-7.93,1.25-9.92c0.24-3.96,0.25-8-0.46-11.92 c-0.56-3.1-1.62-6.51-4.13-8.6c-1.9-1.58-4.34-1.96-6.76-1.45c-3.01,0.63-5.61,2.55-7.77,4.66c-0.91,0.89-2.98,3.11-3.81,7.26 c-0.54,2.72-0.68,7.9,2.25,9.39c0.48,0.25,1.15,0.36,1.51-0.05c0.24-0.28-0.12-3.35,0.46-6.19c0.67-3.24,5.63-11.9,10.02-10.21 c1.92,0.74,2.77,2.92,3.04,4.77c0.93,6.58-0.2,11.41-1.43,15.37c-0.2,0.63-0.82,1.52-0.6,2.13 C94.06,46.36,99.07,47.71,99.14,47.27z" fill="#723F22"/>
    </g>
    <path d="M34.66,16.5c2.05-0.89,5.16-0.39,6.77,0.82c1.72,1.29,0.95,1.61-0.43,1.39 c-1.43-0.22-3.13-0.49-4.54-0.25c-2.5,0.43-3.83,2.1-4.93,4.76c-0.97,2.32-1.57,5.83-2.18,5.83c-0.4,0-0.51-1.33-0.28-3.15 C29.6,21.76,30.85,18.17,34.66,16.5z" fill="#A15D38"/>
    <path d="M49.33,33.82c-0.48,1.39-1.56,2.23-0.86,2.42c2.64,0.72,5.22,1.09,7.87,1.07 c0.38,0,0.78-0.02,1.11-0.2c0.65-0.36,1.17-1.06,1.29-2.16c0.18-1.6,0.2-3.22,0.16-4.83c-0.03-1.12,0.15-2.94-0.94-3.66 c-0.51-0.34-1.14-0.43-1.74-0.52c-1.6-0.23-3.2-0.46-4.8-0.69c-0.44-0.06-1.67-0.17-1.61,0.97C50.02,30.43,49.92,32.09,49.33,33.82 z" fill="#A15D38"/>
    <path d="M89,41.17c-2.04-0.57-3.63-1.12-5.5-2.03c-0.69-0.34-1.74-1.29-3.86-0.66 C73.53,40.3,67.67,40.24,64,40.33c-3.67-0.09-9.53-0.03-15.64-1.85c-2.12-0.63-3.17,0.33-3.86,0.66c-1.87,0.91-3.46,1.47-5.5,2.03 c-1.16,0.32-1.58,1.42,0.55,2.11c3.81,1.24,12.02,2.93,24.45,2.93v0c0,0,0,0,0,0s0,0,0,0v0c12.43,0,20.63-1.69,24.45-2.93 C90.58,42.59,90.17,41.5,89,41.17z" fill="#FFA364"/>
  </g>
</svg>

<svg viewBox="0 0 128 128" xmlns="http://www.w3.org/2000/svg">
  <defs/>
  <path d="M74.34,112.26 C72.63,110.87 55.37,110.87 53.66,112.26 C51.16,114.29 48.78,116.15 47.41,118.13 C46.74,119.09 47,120.6 47.93,121.09 C50.22,122.29 55.05,124.01 64,124.01 C72.95,124.01 77.79,122.3 80.07,121.09 C81,120.6 81.26,119.09 80.59,118.13 C79.22,116.15 76.84,114.29 74.34,112.26 Z" fill="#723F22"/>
  <path d="M88.54,39.55 C86.14,38.89 80.09,37.56 78.67,33.82 C77.08,29.62 80.54,9.3 80.54,9.3 L47.46,9.3 C47.46,9.3 51.23,28.55 49.33,33.82 C47.97,37.58 41.86,38.89 39.46,39.55 C37.06,40.21 25.59,40.67 27.19,61.83 C28.72,82.06 52.27,113.57 52.27,113.57 C52.27,113.57 53.53,116.5 64.01,116.5 C74.49,116.5 75.75,113.57 75.75,113.57 C75.75,113.57 99.3,82.06 100.83,61.83 C102.41,40.66 90.94,40.21 88.54,39.55 Z" fill="#FF7E45"/>
  <path d="M55.64,117.23 C55.93,117.37 56.24,117.52 56.44,117.77 C56.67,118.05 56.74,118.43 56.79,118.8 C56.86,119.3 56.9,119.8 56.91,120.3 C56.92,120.74 56.87,121.25 56.5,121.48 C56.34,121.58 56.15,121.6 55.97,121.61 C54.07,121.76 52.17,121.17 50.46,120.33 C49.95,120.08 49.4,119.74 49.32,119.18 C49.26,118.76 49.5,118.35 49.74,118 C50.14,117.42 50.57,116.87 51.04,116.34 C52.3,114.88 54.24,116.57 55.64,117.23 Z" fill="#A15D38"/>
  <path d="M43.58,4 C41.22,4 41.1,6.27 42.05,7.74 C43.9,10.62 46.36,12.55 47.73,13.45 C49.09,14.35 52.21,14.78 63.99,14.78 C75.77,14.78 78.94,13.91 80.06,13.45 C81.18,12.99 84.53,10.47 86.17,7.2 C86.84,5.87 86.75,4.07 84.85,4.07 C83.28,4.08 45.41,4 43.58,4 Z" fill="#723F22"/>
  <path d="M97.63,74.95 C74.38,77.97 53.74,78.18 30.45,75.14 L32.2,79.48 C53.39,82.06 74.73,82.06 95.87,79.37 L97.63,74.95 Z" fill="#723F22"/>
  <path d="M29.67,72.92 C29.53,72.49 29.39,72.06 29.26,71.64 C29.39,72.07 29.52,72.49 29.67,72.92 Z" fill="#723F22"/>
  <path d="M100.94,59.32 C100.94,59.32 97.84,59.68 94.95,59.94 L93.39,71.48 C95.45,71.29 97.27,71.12 98.96,70.94 C99.93,67.76 100.59,64.67 100.81,61.82 C100.99,59.43 100.94,59.32 100.94,59.32 Z" fill="#723F22"/>
  <path d="M100.38,51.4 C100.38,51.4 100.37,51.4 100.37,51.4 C100.49,52 100.6,52.62 100.69,53.29 C100.55,52.27 100.38,51.4 100.38,51.4 Z" fill="#723F22"/>
  <path d="M100.9,55.69 C100.9,55.69 100.88,55.35 100.84,54.86 C100.87,55.13 100.88,55.42 100.9,55.69 C100.9,55.69 100.9,55.69 100.9,55.69 Z" fill="#723F22"/>
  <path d="M43.11,58.03 C50.07,58.7 53.53,58.88 60.46,58.98 C60.52,63.02 60.55,65.04 60.61,69.09 C58.93,69.07 58.09,69.05 56.41,68.99 C56.32,66.51 56.28,65.27 56.19,62.79 C52.85,62.67 51.18,62.58 47.83,62.33 C48.17,66.87 48.34,69.14 48.67,73.68 C55.9,74.23 59.5,74.34 66.72,74.21 C66.81,68.11 66.86,65.06 66.95,58.97 C73.88,58.85 77.35,58.65 84.31,57.96 C83.92,62.02 83.72,64.05 83.34,68.1 C81.65,68.27 80.81,68.35 79.12,68.48 C79.31,66 79.4,64.76 79.59,62.27 C76.24,62.53 74.57,62.63 71.23,62.76 C71.07,67.29 70.99,69.56 70.83,74.09 C78.05,73.81 81.66,73.5 88.93,72.53 C89.69,66.4 90.07,63.33 90.85,57.2 C94.91,56.67 97.8,56.24 100.9,55.68 C100.88,55.4 100.78,54.08 100.69,53.28 C100.62,52.66 100.37,51.39 100.37,51.39 C75.71,54.64 52.25,54.7 27.6,51.59 C27.35,52.88 27.18,54.32 27.1,55.91 C30.57,56.53 32.1,56.73 36.6,57.3 C37.11,61.37 37.37,63.4 37.87,67.46 C36.18,67.24 35.33,67.13 33.63,66.87 C33.27,64.37 33.09,63.13 32.73,60.63 C29.97,60.22 29.44,60.15 27.08,59.73 C27.11,60.4 27.14,61.1 27.2,61.82 C27.42,64.75 28.12,67.93 29.12,71.2 C34.51,72.16 38.43,72.71 44.57,73.31 C43.99,67.21 43.7,64.15 43.11,58.03 Z" fill="#723F22"/>
  <path d="M65.4,88.42 C52.69,88.42 40.7,86.74 35.15,85.83 L34.18,83.62 C38.85,84.43 51.71,86.4 65.39,86.4 C78.87,86.4 89.82,84.48 93.9,83.66 L92.84,85.92 C87.88,86.85 77.66,88.42 65.4,88.42 Z" fill="#723F22"/>
  <path d="M49.94,10.17 C54.37,10.67 57.59,10.1 62.1,8.58 C63.34,8.16 63.09,6.36 61.79,6.35 L55.23,6.28 L46.08,5.89 C44.13,5.83 44.23,8.09 45.94,9.04 C46.45,9.31 47.73,9.92 49.94,10.17 Z" fill="#A15D38"/>
  <path d="M81.17,36.71 C80.05,35.95 79.12,35.01 78.67,33.81 C78.07,32.21 78.19,28.29 78.58,24.04 C67.8,25.77 60.35,25.78 49.6,24.07 C49.96,28.1 50.02,31.89 49.33,33.81 C48.9,35.01 47.98,35.96 46.86,36.71 C58.09,39.55 69.94,39.55 81.17,36.71 Z" fill="#723F22"/>
  <path d="M28.86,47.27 C28.73,46.35 27.73,39.34 27.61,37.35 C27.37,33.39 27.36,29.35 28.07,25.43 C28.63,22.33 29.69,18.92 32.2,16.83 C34.1,15.25 36.54,14.87 38.96,15.38 C41.97,16.01 44.57,17.93 46.73,20.04 C47.64,20.93 49.71,23.15 50.54,27.3 C51.08,30.02 51.22,35.2 48.29,36.69 C47.81,36.94 47.14,37.05 46.78,36.64 C46.54,36.36 46.9,33.29 46.32,30.45 C45.65,27.21 40.69,18.55 36.3,20.24 C34.38,20.98 33.53,23.16 33.26,25.01 C32.33,31.59 33.46,36.42 34.69,40.38 C34.89,41.01 35.51,41.9 35.29,42.51 C33.94,46.36 28.93,47.71 28.86,47.27 Z" fill="#723F22"/>
  <path d="M99.14,47.27 C99.27,46.35 100.27,39.34 100.39,37.35 C100.63,33.39 100.64,29.35 99.93,25.43 C99.37,22.33 98.31,18.92 95.8,16.83 C93.9,15.25 91.46,14.87 89.04,15.38 C86.03,16.01 83.43,17.93 81.27,20.04 C80.36,20.93 78.29,23.15 77.46,27.3 C76.92,30.02 76.78,35.2 79.71,36.69 C80.19,36.94 80.86,37.05 81.22,36.64 C81.46,36.36 81.1,33.29 81.68,30.45 C82.35,27.21 87.31,18.55 91.7,20.24 C93.62,20.98 94.47,23.16 94.74,25.01 C95.67,31.59 94.54,36.42 93.31,40.38 C93.11,41.01 92.49,41.9 92.71,42.51 C94.06,46.36 99.07,47.71 99.14,47.27 Z" fill="#723F22"/>
  <path d="M34.66,16.5 C36.71,15.61 39.82,16.11 41.43,17.32 C43.15,18.61 42.38,18.93 41,18.71 C39.57,18.49 37.87,18.22 36.46,18.46 C33.96,18.89 32.63,20.56 31.53,23.22 C30.56,25.54 29.96,29.05 29.35,29.05 C28.95,29.05 28.84,27.72 29.07,25.9 C29.6,21.76 30.85,18.17 34.66,16.5 Z" fill="#A15D38"/>
  <path d="M49.33,33.82 C48.85,35.21 47.77,36.05 48.47,36.24 C51.11,36.96 53.69,37.33 56.34,37.31 C56.72,37.31 57.12,37.29 57.45,37.11 C58.1,36.75 58.62,36.05 58.74,34.95 C58.92,33.35 58.94,31.73 58.9,30.12 C58.87,29 59.05,27.18 57.96,26.46 C57.45,26.12 56.82,26.03 56.22,25.94 C54.62,25.71 53.02,25.48 51.42,25.25 C50.98,25.19 49.75,25.08 49.81,26.22 C50.02,30.43 49.92,32.09 49.33,33.82 Z" fill="#A15D38"/>
  <path d="M89,41.17 C86.96,40.6 85.37,40.05 83.5,39.14 C82.81,38.8 81.76,37.85 79.64,38.48 C73.53,40.3 67.67,40.24 64,40.33 C60.33,40.24 54.47,40.3 48.36,38.48 C46.24,37.85 45.19,38.81 44.5,39.14 C42.63,40.05 41.04,40.61 39,41.17 C37.84,41.49 37.42,42.59 39.55,43.28 C43.36,44.52 51.57,46.21 64,46.21 L64,46.21 C64,46.21 64,46.21 64,46.21 C64,46.21 64,46.21 64,46.21 L64,46.21 C76.43,46.21 84.63,44.52 88.45,43.28 C90.58,42.59 90.17,41.5 89,41.17 Z" fill="#FFA364"/>
</svg>
